X:1
T:Stäfali-Juiz  2003  Bb
T:Patricia Dahinden-Sterchi
T:Dirigenten-Notiz: Edi Gasser
C:Unterwalden (CH)
%%partsbox
%P:ABCD
R:Naturjodel
M:6/8
L:1/8
K:Bb
[P:A] B>d F B>d F | B>d g f3 | c F/F/ F/d/ cFd | B6 | 
B>d F B>d F | B>d g f3 | d F/F/ F/d/  c/F/ F/F/ F/d/ | B6 || 
M:6/8
[P:B] c F/F/ F/d/ c z/e/d/c/ | B F/F/ F/d/ D z/ c/B | A F/F/ F/A/ E/F/ dc | B>c dF3 | 
c F/F/ F/d/ c z/e/d/c/ | B F/F/ F/d/ D z/ c/B | A F/F/ F/A/ E/F/ d/F/ c/F/ | B6 | 
c F/F/ F/d/ c z/e/d/c/ | B F/F/ F/d/ D z/ c/B | A F/F/ F/A/ E/F/ dc | B>c dF3 | 
c F/F/ F/d/ c z/e/d/c/ | B F/F/ F/d/ D z/ c/B | A F/F/ F/A/ E/F/ d/F/ c/F/ | B6 | 
M:6/8
[P:C]  e>e B e>e d/c/ | B>F F/F/ dcB | A>F F/F/ edc | B>cdF3 | 
e>e B e>e d/c/ | B>F F/F/ dcB | A/F/ F/F/ F/A/ E/F/ d/F/ c/F/ | B6 | 
e>e B e>e d/c/ | B>F F/F/ dcB | A>F F/F/ edc | B>cdF3 | 
e>e B e>e d/c/ | B>F F/F/ dcB | A/F/ F/F/ F/A/ E/F/ d/F/ c/F/ | B6 || 
[P:D] B>d F Bd F | B>d g f3 | A F/F/ F/d/ c/F/ F/F/ F/d/ | B6 | c F/F/ F/d/ cFf | B6 |] 
W:
W:Reihenfolge: A - B - C - D
W:
W:UJV-Naturjodelsammlung: Code-Nr: 67-01
W:http://www.naturjodler.ch/code 67.htm  (with AUDIO)
W:notiert Edi Gasser. %Angaben: 
%October 10, 2018

